packages/foundations/icons/Education/Mortarboard.svg

<svg width="24" height="24" viewBox="0 0 24 24" fill="none" xmlns="http://www.w3.org/2000/svg">
<path fill-rule="evenodd" clip-rule="evenodd" d="M12.3012 2.2015L12.4368 2.22897C12.4831 2.24 12.5316 2.25341 12.5861 2.27065L12.7711 2.33539L13.1641 2.49507L23.416 6.85578C23.7717 7.0071 23.9375 7.41816 23.7861 7.77392C23.7153 7.94053 23.5826 8.0732 23.416 8.14408L20.6176 9.33399C20.8635 9.77306 21 10.2755 21 10.7997L21.0011 18.2681C21.5983 18.6141 22 19.2601 22 19.9999C22 21.1045 21.1046 21.9999 20 21.9999C18.8954 21.9999 18 21.1045 18 19.9999C18 19.2598 18.4021 18.6135 18.9997 18.2677L18.9988 15.0123L18.9944 15.1394C18.8372 17.0919 15.4186 18.9999 12 18.9999C8.5 18.9999 4 16.9999 4 14.9999L4.00091 14.8741L4.01449 14.4314L4.05797 13.6891L4.13043 12.7728L4.23187 11.6826L4.32698 10.7508L4.43282 9.78029L0.58401 8.14408C0.228256 7.99275 0.0625311 7.58169 0.213853 7.22593C0.284723 7.05932 0.417396 6.92665 0.58401 6.85578L10.986 2.43203L11.229 2.33539L11.4139 2.27065C11.4412 2.26203 11.4669 2.25437 11.4916 2.24748L11.6313 2.21401C11.6537 2.20949 11.6761 2.20539 11.6988 2.2015C11.9031 2.16656 12.0969 2.16656 12.3012 2.2015ZM6.302 11.0879L6.16723 12.4531L6.07949 13.4696L6.03484 14.0996L6.00835 14.6148L6.001 14.8619L6.06085 14.9377L6.16029 15.0428C6.45422 15.3319 6.93883 15.6521 7.55296 15.9469C8.89627 16.5917 10.6022 16.9999 12 16.9999C13.3387 16.9999 14.7546 16.6224 15.8202 16.0134C16.2519 15.7668 16.5587 15.5226 16.7511 15.3337L16.874 15.2032C16.9589 15.1045 17 15.0324 17 14.9999L16.9961 14.7504L16.9843 14.4487L16.9371 13.6917L16.8811 12.9921L16.8072 12.1819L16.739 11.4959L14.9022 12.2768C14.0092 12.6503 13.5256 12.8065 12.9398 12.9067C12.308 13.0147 11.6924 13.0147 11.0606 12.9067C10.748 12.8532 10.4645 12.784 10.1294 12.673L9.77427 12.5471L9.36685 12.3876C9.2936 12.3579 9.21743 12.3265 9.13797 12.2934L6.302 11.0879ZM18.7438 10.1312L18.6118 10.1863L18.7071 11.0775L18.8004 12.0157L18.8571 12.6307L18.9244 13.4469L18.9705 14.1355L18.9894 14.5238L18.9988 14.9373L19 10.7997C19 10.548 18.9056 10.3113 18.7438 10.1312ZM12 4.18193L11.9526 4.19818L11.6188 4.33549L4.179 7.49993L10.6246 10.2411L11.0645 10.4207L11.3103 10.5121L11.501 10.5726C11.5295 10.5807 11.5566 10.5878 11.583 10.5942L11.7348 10.6254C11.9202 10.6571 12.0798 10.6571 12.2652 10.6254L12.417 10.5942C12.4434 10.5878 12.4705 10.5807 12.499 10.5726L12.6897 10.5121L12.9355 10.4207L13.3754 10.2411L16.3148 8.99029L14 7.99993C13.4953 7.77562 13.268 7.18466 13.4923 6.67998C13.7166 6.17529 14.3076 5.948 14.8123 6.1723L18.8638 7.90629L19.82 7.49993L12.1381 4.23378L12 4.18193Z" fill="#3D474D"/>
</svg>

<svg xmlns="http://www.w3.org/2000/svg" fill="none" viewBox="0 0 24 24" width="100%" height="100%">
  <path fill="#3D474D" fill-rule="evenodd" d="m12.301 2.201.136.028c.046.011.095.024.15.042l.184.064.393.16 10.252 4.36a.7.7 0 0 1 0 1.29l-2.798 1.189c.245.44.382.941.382 1.466l.001 7.468a2 2 0 1 1-2.001 0l-.001-3.256-.005.127C18.837 17.092 15.42 19 12 19c-3.5 0-8-2-8-4v-.125l.014-.443.044-.742.072-.916.102-1.09.095-.932.106-.97L.584 8.143a.7.7 0 0 1 0-1.288l10.402-4.424.243-.097.185-.064.078-.024.14-.033a1.744 1.744 0 0 1 .67-.013Zm-5.999 8.887-.135 1.365-.088 1.017-.044.63-.027.515-.007.247.06.076.1.105c.293.289.778.61 1.392.904C8.896 16.592 10.603 17 12 17c1.339 0 2.755-.378 3.82-.987.432-.246.739-.49.931-.68l.123-.13c.085-.098.126-.17.126-.203l-.004-.25-.012-.301-.047-.757-.056-.7-.074-.81-.068-.686-1.837.78c-.893.374-1.376.53-1.962.63a5.49 5.49 0 0 1-1.88 0 6.114 6.114 0 0 1-.93-.233l-.356-.126-.407-.16c-.073-.03-.15-.06-.229-.094l-2.836-1.205Zm12.442-.957-.132.055.095.892.093.938.057.615.067.816.047.689.018.388.01.413L19 10.8a1 1 0 0 0-.256-.669ZM12 4.181l-.047.017-.334.137L4.179 7.5l6.446 2.741.44.18.245.091.191.06c.029.009.056.016.082.022l.152.031c.185.032.345.032.53 0l.152-.03a2.16 2.16 0 0 0 .082-.022l.19-.06.246-.092.44-.18 2.94-1.25L14 8a1 1 0 1 1 .812-1.828l4.052 1.734.956-.406-7.682-3.266L12 4.182Z" clip-rule="evenodd"/>
</svg>
